X:187
T:Johnny's Wedding
M:C|
L:1/8
K:Gm
GA|BGdG BGGB|AFcB AFFA|BGdG BGGB|AGFA G2 GA|
BGdG BGGB|AFcB AFFA|GBAc Bdce|1 dg^fa g2 GA:|2 dg^fa g2 ga||
|:bgag fdd=e|fdcB AG F2|g2 ga gfdc|dgg^f g2 ga|
bgag fdd=e|fdcB AG F2|GBAc Bdce|1 dg^fa g2 ga:|2 dg^fa g3 z |>|
